X: 14911
T: Gathering The Dal gCais
R: reel
M: 4/4
K: Dmajor
F3A GEE2|A,CEG FDDE|EDFA d2cd|Beed ceAc|
d2fe dAFA|GBAG FEDF|DddB cAA,C|EDDC DBAG|
F3A GEE2|A,CEG FDDE|EDFA d2cd|Beed ceAc|
d2fe dAFA|GBAG FEDF|DddB cAA,C|EDDC DFEC||
A,3C EA,CE|A,CEG FEDF|ECA,C E3C|A,CEG FECE|
EDFA d2cd|Beed ceAc|d2fe dBAF|GBAG FEDB,|
A,3C EA,CE|A,CEG FEDF|ECA,C E3C|A,CEG FECE|
EDFA d2cd|Beed ceAc|d2fe dBAF|GBAG FDDC||
|:D4 (3EFG AB|=c3B c3B|Add^c d3=c|Adde =f2eg|
=fded d=cAd|d=cAG (3ccA D=F|D2 (3E=FG AFDB|=cAGE ED^CE:|
|:^faa^g a3=g|faag fdde|faa^g a3f|=gfed ^cAAg|
faa^g aba=g|faag fddg|bg~g2 af~f2|ceag fd d2:|

